Adwaita++-Dark/apps/16/debian.svg

<svg height="16" width="16" xmlns="http://www.w3.org/2000/svg">
  <path d="m6.8554688 2.9550781a1.0001 1.0001 0 0 0 -.1679688.0136719 1.0001 1.0001 0 0 0 -.65625.375l-2.8125 3.46875a1.0001 1.0001 0 0 0 -.21875.625v1 6.558594c0 .57036.46094 1 1 1h8.003906c.52343 0 .996094-.4453.996094-.9375v-6.3007815a1.0001 1.0001 0 0 0 .03125-.2578125v-1a1.0001 1.0001 0 0 0 -.8125-1l-3-.5a1.0001 1.0001 0 0 0 -.3125-.03125 1.0001221 1.0001221 0 1 0 -.03125 2l.1796875.03125h-4.0546875v-.21875l2.59375-3.15625a1.0001 1.0001 0 0 0 -.7382812-1.6699219z" fill="#e6ddff"/>
</svg>

<svg xmlns="http://www.w3.org/2000/svg" width="16" height="16" version="1.1">
 <title id="title9167">
  Gnome Symbolic Icon Theme
 </title>
 <g id="layer14" transform="translate(-482,-300)">
  <path fill="#E6DDFF" d="M 6.8554688 2.9550781 A 1.0001 1.0001 0 0 0 6.6875 2.96875 A 1.0001 1.0001 0 0 0 6.03125 3.34375 L 3.21875 6.8125 A 1.0001 1.0001 0 0 0 3 7.4375 L 3 8.4375 L 3 14.996094 C 3 15.566454 3.46094 15.996094 4 15.996094 L 12.003906 15.996094 C 12.527336 15.996094 13 15.550794 13 15.058594 L 13 8.7578125 A 1.0001 1.0001 0 0 0 13.03125 8.5 L 13.03125 7.5 A 1.0001 1.0001 0 0 0 12.21875 6.5 L 9.21875 6 A 1.0001 1.0001 0 0 0 8.90625 5.96875 A 1.0001221 1.0001221 0 1 0 8.875 7.96875 L 9.0546875 8 L 5 8 L 5 7.78125 L 7.59375 4.625 A 1.0001 1.0001 0 0 0 6.8554688 2.9550781 z" transform="translate(482,300)"/>
 </g>
</svg>
